packages/astro-components-stencil/src/icons/shop.svg

<svg xmlns="http://www.w3.org/2000/svg" viewBox="0 0 24 24"><g xmlns="http://www.w3.org/2000/svg" id="shop" fill-rule="nonzero">
            <path d="M16 6V4c0-1.1-.9-2-2-2h-4c-1.1 0-2 .9-2 2v2H4c-1.1 0-2 .9-2 2v11c0 1.1.9 2 2 2h16c1.1 0 2-.9 2-2V8c0-1.1-.9-2-2-2h-4zm-6-2h4v2h-4V4zM9 17.07V9.83c0-.38.4-.62.74-.44l6.03 3.21c.33.18.36.65.04.86l-6.03 4.02a.5.5 0 01-.78-.41z"/>
        </g></svg>

<svg width="24" height="24" viewBox="0 0 24 24" fill="none" xmlns="http://www.w3.org/2000/svg">
<path fill-rule="evenodd" clip-rule="evenodd" d="M16 6V4C16 2.9 15.1 2 14 2H10C8.9 2 8 2.9 8 4V6H4C2.9 6 2 6.9 2 8V19C2 20.1 2.9 21 4 21H20C21.1 21 22 20.1 22 19V8C22 6.9 21.1 6 20 6H16ZM10 4H14V6H10V4ZM9 9.83V17.07C9 17.47 9.45 17.7 9.78 17.48L15.81 13.46C16.13 13.25 16.1 12.78 15.77 12.6L9.74 9.39C9.4 9.21 9 9.45 9 9.83Z" fill="black"/>
</svg>
